**kern	**kern	**dynam
*part1	*part1	*part1
*staff2	*staff1	*
*I"Piano	*	*
*clefF4	*clefG2	*
*k[b-e-]	*k[b-e-]	*
*M3/4	*M3/4	*
=1	=1	=1
4E-	8r	f
.	8f	.
4F 4A 4e-	4.ee- 4.gg	.
4F 4A 4e-	.	.
.	8aa	.
=	=	=
4D	(2b- 2dd 2gg	>
4F 4B- 4d	.	.
4F 4B- 4d	4ff)	.
=	=	=
4GG	4r	] mf
.	(16qqg/LL 16qqee-	.
.	16qqff/JJ	.
4F 4G 4Bn	(8ee-L)	.
.	8dd	.
4F 4G 4B	8cc	.
.	8bnJ)	.
=	=	=
4C	(2dd	.
4E- 4G 4c	.	.
4E- 4G 4c	4cc)	.
=	=	=
4En	8r	<
.	(8b-	.
!	!LO:TX:b:i:t=rall.	!
4G 4B- 4d-X	8ccL	.
.	8b-	.
4G 4B- 4d-	8a	.
.	8b-J)	.
=	=	=
4F	(4gg	[ >
4B- 4dn	4ff)	.
4B- 4d	8r	.
.	8dd	.
=	=	=
*	*^	*
2G	4dd	2en 2b-	]
.	[4dd;	.	.
8.A;L	8.dd;L]	4e-X 4f	.
16FFJk	16ccJk	.	.
*	*v	*v	*
=	=	=
4BB-'	2d 2f 2b-	.
4BBB-	.	.
4r	4r	.
=	=	=
*-	*-	*-
!!!system-decoration: {(s1,s2)}
